core/assets/icons/reload.svg

<svg width="24" height="24" viewBox="0 0 24 24" xmlns="http://www.w3.org/2000/svg"><g id="reload"><g id="wrapper"><path id="Vector" fill-rule="evenodd" clip-rule="evenodd" d="M5.61383 8.984L11.9524 10.1452L12.2588 8.47302L7.88627 7.672L9.37882 3.48481L7.77751 2.91401L5.61383 8.984Z"/><path id="Ellipse" fill-rule="evenodd" clip-rule="evenodd" d="M4.15039 12.322L4.15039 13.172C4.15039 17.5075 7.66495 21.022 12.0004 21.022C16.3358 21.022 19.8504 17.5075 19.8504 13.172C19.8504 8.83659 16.3358 5.32202 12.0004 5.32202C10.2862 5.32202 8.69812 5.87243 7.40646 6.80599L6.71756 7.3039L7.71338 8.6817L8.40228 8.1838C9.41383 7.45269 10.6556 7.02202 12.0004 7.02202C15.3969 7.02202 18.1504 9.77547 18.1504 13.172C18.1504 16.5686 15.3969 19.322 12.0004 19.322C8.60384 19.322 5.85039 16.5686 5.85039 13.172L5.85039 12.322L4.15039 12.322Z"/></g></g></svg>

<svg xmlns="http://www.w3.org/2000/svg" width="24" height="24" fill="none"><g fill="#191C22" fill-rule="evenodd" clip-rule="evenodd"><path d="m5.614 8.984 6.338 1.161.307-1.672-4.373-.801L9.38 3.485l-1.601-.571-2.164 6.07Z"/><path d="M4.15 12.322v.85a7.85 7.85 0 1 0 3.256-6.366l-.688.498.995 1.378.69-.498a6.15 6.15 0 1 1-2.552 4.988v-.85h-1.7Z"/></g></svg>
